X:8
T:B008-  All in the Land of Cider
S:via BBBM, form 'Pills' V, 1714
Q:1/4=120
L:1/4
M:6/4
K:C
G|\
c3/2 d/2cd3/2 e/2d|e(c2c2) :| e|\
f3/2 g/2fe3/2 f/2e|d3/2 e/2dB3/2 A/2G|\
c3/2 d/2cd3/2 e/2d|e(c2c2)|]
